X:1
T:Fanny Powers Harmony   
C:Composer : Robin Beech   
N:Montreal 28/02/2004   
M:6/8     
L:1/8    
K:G
D |:B,2 D B,2 D |E4 FG |AGF GAE |(D2D3)A |B2 G c2 A |B2 G E2 G |FGA AGF |1GDB, G,2 D :|2GDB, G,2 D ::B,2 D B,2 D |B4 AG |E2 G E2 G |c4 BA |BAG FED |CB,A, B,CD |EFG AGF |1GDB, G,2 D :|2GDB, G,3 :|
